X:1
T:Title
%%score { ( 1 4 ) | ( 2 3 ) }
L:1/8
M:4/4
K:Ab
V:1 treble nm="Grand Piano"
V:4 treble 
V:2 bass 
V:3 bass 
V:1
 z4 z2[Q:1/4=100] E2 | A3 A B2 A2 | AG G2 z2 [EG]2 | [EA]2 B2 c2 ed |[M:3/4] c2 B2 z2 | %5
[M:1/4] [GB]2 |[M:4/4] [CGc]3 [CGB] [CFA]2 [CFA]2 | F4 z2 B2[K:bass] | [Ee]2 [Fd]2 [Ec]2 [DB]2 | %9
[M:7/4] [CA]6 z2 z2 z4 |[M:4/4] [DA]8 | [CA]8 |] %12
V:2
 z4 z2 E,2 | [A,CE]3 [A,CE] [G,DE]2 [A,CE]2 | CB, [E,B,E]2 z2 [D,B,]2 | %3
 [C,A,]2 [E,G,E]2 [A,E]2 [D,A,]2 |[M:3/4] [E,E]4 z2 |[M:1/4] z D |[M:4/4] =E,3 E, F,2 F,_E, | %7
 B,4 z4 | [C,A,]2 [D,A,]2 [E,A,]2 [E,G,]2 |[M:7/4] [A,,A,]6 z2 z2 z4 |[M:4/4] [D,F,]8 | [A,,E,]8 |] %12
V:3
 x8 | x8 | [E,E]2 z2 z4 | x8 |[M:3/4] A,2 G,2 z2 |[M:1/4] E,2 |[M:4/4] x8 | %7
 D,3 =D, [E,G,E]2 .[E,G,E]2 | x8 |[M:7/4] x14 |[M:4/4] x8 | x8 |] %12
V:4
 x8 | x8 | x8 | z4 z2 F2 |[M:3/4] x6 |[M:1/4] E z |[M:4/4] x8 | d3 c B2 z[K:bass] D, | x8 | %9
[M:7/4] x14 |[M:4/4] x8 | x8 |] %12

